cssgg/globe.svg

<svg
  width="24"
  height="24"
  viewBox="0 0 24 24"
  fill="none"
  xmlns="http://www.w3.org/2000/svg"
>
  <path
    fill-rule="evenodd"
    clip-rule="evenodd"
    d="M6.85327 8C6.85327 5.23858 9.09185 3 11.8533 3C14.6147 3 16.8533 5.23858 16.8533 8C16.8533 10.7614 14.6147 13 11.8533 13C9.09185 13 6.85327 10.7614 6.85327 8ZM11.8533 11C10.1964 11 8.85327 9.65685 8.85327 8C8.85327 6.34315 10.1964 5 11.8533 5C13.5101 5 14.8533 6.34315 14.8533 8C14.8533 9.65685 13.5101 11 11.8533 11Z"
    fill="currentColor"
  />
  <path
    d="M5 12.1294C6.25216 14.2031 8.4189 15.6624 10.9414 15.9486V18H8.85327V20H14.8533V18H12.9414V15.9266C16.8449 15.3958 19.8532 12.0492 19.8532 8.00001C19.8532 6.43638 19.4046 4.97752 18.6291 3.74512L16.9253 4.79326C17.513 5.72084 17.8532 6.82069 17.8532 8.00001C17.8532 11.3137 15.167 14 11.8532 14C9.66611 14 7.75231 12.8298 6.70381 11.0813L5 12.1294Z"
    fill="currentColor"
  />
</svg>

<svg viewBox="0 0 24 24" xmlns="http://www.w3.org/2000/svg"><path fill-rule="evenodd" d="M6.85 8c0-2.77 2.23-5 5-5 2.76 0 5 2.23 5 5 0 2.76-2.24 5-5 5 -2.77 0-5.01-2.24-5.01-5Zm5 3c-1.66 0-3.01-1.35-3.01-3 0-1.66 1.34-3 3-3 1.65 0 3 1.34 3 3 0 1.65-1.35 3-3 3Z"/><path d="M5 12.12c1.25 2.07 3.41 3.53 5.94 3.81v2.05H8.85v2h6v-2h-1.92V15.9c3.9-.54 6.91-3.88 6.91-7.93 0-1.57-.45-3.03-1.23-4.26L16.9 4.75c.58.92.92 2.02.92 3.2 0 3.31-2.69 5.99-6 5.99 -2.19 0-4.11-1.18-5.15-2.92l-1.71 1.04Z"/></svg>
